package/thingino-webui/files/var/www/a/motion.svg

<?xml version="1.0" encoding="UTF-8" standalone="no"?>
<!-- Created with Inkscape (http://www.inkscape.org/) -->

<svg width="512" height="512" viewBox="0 0 5.3333333 5.3333333" version="1.1" id="svg5" inkscape:version="1.2.2 (b0a8486541, 2022-12-01)" xml:space="preserve" sodipodi:docname="motion.svg" xmlns:inkscape="http://www.inkscape.org/namespaces/inkscape" xmlns:sodipodi="http://sodipodi.sourceforge.net/DTD/sodipodi-0.dtd" xmlns="http://www.w3.org/2000/svg" xmlns:svg="http://www.w3.org/2000/svg"><sodipodi:namedview id="namedview7" pagecolor="#ffffff" bordercolor="#000000" borderopacity="0.25" inkscape:showpageshadow="2" inkscape:pageopacity="0.0" inkscape:pagecheckerboard="0" inkscape:deskcolor="#d1d1d1" inkscape:document-units="mm" showgrid="false" inkscape:zoom="0.80553926" inkscape:cx="348.21394" inkscape:cy="518.28635" inkscape:window-width="2560" inkscape:window-height="1379" inkscape:window-x="0" inkscape:window-y="32" inkscape:window-maximized="1" inkscape:current-layer="layer1" /><defs id="defs2" /><g inkscape:label="Layer 1" inkscape:groupmode="layer" id="layer1"><path id="path10270" style="color:#000000;fill:#00ff00;stroke-linecap:round;stroke-miterlimit:2;-inkscape-stroke:none;paint-order:stroke fill markers" d="M 0 0 L 0 0.083984374 L 0 0.89501953 L 0.083333333 0.89501953 L 0.083333333 0.083333333 L 0.89501953 0.083333333 L 0.89501953 0 L 0 0 z M 4.4383138 0 L 4.4383138 0.083333333 L 5.25 0.083333333 L 5.25 0.89501953 L 5.3333333 0.89501953 L 5.3333333 4.4383138 L 5.25 4.4383138 L 5.25 5.25 L 4.4383138 5.25 L 4.4383138 5.3333333 L 0.89501953 5.3333333 L 0.89501953 5.25 L 0.083333333 5.25 L 0.083333333 4.4383138 L 0 4.4383138 L 0 5.3339843 L 5.3339843 5.3339843 L 5.3339843 0 L 4.4383138 0 z " /><path style="fill:#cccccc;stroke-width:1" d="M 3.1721266,5.1790397 C 3.054126,5.149478 2.9580504,5.0620184 2.9309244,4.9594688 2.9256709,4.9396065 2.9050602,4.694523 2.8851239,4.4148393 2.8651878,4.1351556 2.8460755,3.8855205 2.842652,3.8600946 2.8349695,3.8030324 2.8358965,3.8039506 2.4476936,3.4687865 2.2867643,3.3298445 2.1357368,3.1950423 2.1120771,3.1692266 2.0370273,3.0873373 1.9860692,2.9557475 1.9857709,2.8430629 1.985699,2.8176377 2.0110016,2.6211651 2.0419915,2.4064584 2.0729804,2.1917516 2.098393,2.0126581 2.0984636,2.0084727 2.0986835,1.9955913 1.9972677,2.0624218 1.976468,2.0888637 1.9656886,2.1025672 1.9031094,2.2776723 1.8374025,2.4779863 1.7059776,2.8786483 1.6910569,2.908919 1.6025364,2.9544731 1.4258044,3.0454228 1.215111,2.9242862 1.215111,2.7317254 c 0,-0.023198 0.018738,-0.105874 0.041639,-0.183723 0.022902,-0.077849 0.073548,-0.252025 0.1125465,-0.3870575 0.038999,-0.1350326 0.083471,-0.2714072 0.098827,-0.3030549 0.017003,-0.035041 0.056348,-0.085661 0.1006198,-0.1294525 0.068652,-0.067908 0.087565,-0.079282 0.339798,-0.2043391 0.1469053,-0.072836 0.321111,-0.1620102 0.3871243,-0.1981663 0.1492614,-0.081752 0.2318665,-0.102494 0.3408435,-0.085586 0.2022314,0.031378 0.3517189,0.1857506 0.3639162,0.3758101 0.00365,0.056784 -0.016091,0.2206176 -0.085757,0.7118912 -0.082634,0.5827357 -0.089211,0.640742 -0.075748,0.6681791 0.00814,0.016591 0.1113467,0.1099948 0.2304767,0.2085872 0.2244312,0.1857399 0.2743326,0.235331 0.3234169,0.321407 0.066164,0.1160279 0.069405,0.1372765 0.114021,0.7477376 0.0228,0.3119669 0.039774,0.5949499 0.037721,0.628851 -0.00914,0.1509502 -0.1284071,0.2666164 -0.2856065,0.2770002 -0.036452,0.00241 -0.075521,0.00206 -0.086821,-7.696e-4 z M 1.5746012,5.1140811 C 1.4946058,5.0897472 1.4139132,5.0246388 1.376421,4.9541743 1.3604583,4.9241742 1.3546237,4.8950592 1.3548017,4.8463073 1.3550339,4.783215 1.3707982,4.7398724 1.640638,4.0604191 1.7977128,3.6649068 1.9311147,3.3262814 1.9370862,3.3079184 c 0.00598,-0.018363 0.013695,-0.033387 0.017162,-0.033387 0.00347,0 0.1186418,0.093073 0.2559429,0.2068299 0.1919046,0.1589965 0.248502,0.211174 0.2447258,0.2256141 -0.0027,0.010332 -0.1151843,0.2998007 -0.2499616,0.6432649 C 1.9634032,4.9658085 1.9591728,4.975472 1.9085408,5.0273462 1.8434638,5.0940202 1.7681645,5.1240632 1.669307,5.1227962 1.63138,5.1223103 1.588762,5.1183962 1.5746,5.1140762 Z M 3.6498234,2.7660916 C 3.6212303,2.7567324 3.5017006,2.6761322 3.3364955,2.5548089 3.1895909,2.4469258 3.0657567,2.3551406 3.0613083,2.3508421 c -0.010163,-0.00982 0.076918,-0.606985 0.088514,-0.6069909 0.00468,-2.5e-6 0.152341,0.1097887 0.3281292,0.2439805 0.1757882,0.1341916 0.3430032,0.2617156 0.3715887,0.2833866 0.077967,0.059108 0.1082503,0.090051 0.1305296,0.1333744 0.063163,0.1228235 0.010881,0.2773349 -0.1155125,0.3413834 -0.063566,0.032212 -0.1523633,0.040529 -0.2147339,0.020116 z M 2.2344058,0.61249196 c 0.0067,-0.20553508 0.19254,-0.41342523 0.3790171,-0.46035248 0.063641,-0.0146723 0.1899273,-0.0131101 0.2505117,0.003094 0.1791684,0.0479316 0.3257343,0.20295737 0.3636138,0.38460112 0.024568,0.11780824 0.00697,0.23196113 -0.053175,0.34508454 C 3.0697473,1.0816838 2.8263958,1.1884994 2.6122456,1.1316574 2.3571338,1.0336858 2.2243571,0.83135549 2.2344058,0.61249196 Z" id="path299" sodipodi:nodetypes="sssssscscssssssssssscscssscssscssscssssssccsscsssssscccsccc" /></g></svg>

<svg xmlns="http://www.w3.org/2000/svg" xml:space="preserve" width="512" height="512" viewBox="0 0 5.333 5.333"><path fill="#0f0" d="M0 0v.895h.083V.083h.812V0H0zm4.438 0v.083h.812v.812h.083v3.543H5.25v.812h-.812v.083H.895V5.25H.083v-.812H0v.896h5.334V0h-.896z" color="#000" paint-order="stroke fill markers" style="-inkscape-stroke:none"/><path fill="#ccc" d="M3.172 5.179a.33.33 0 0 1-.241-.22c-.005-.02-.026-.264-.046-.544s-.039-.53-.042-.555c-.008-.057-.007-.056-.395-.391a8.78 8.78 0 0 1-.336-.3.52.52 0 0 1-.126-.326 8.7 8.7 0 0 1 .056-.437l.056-.398c0-.012-.1.054-.122.08a5.36 5.36 0 0 0-.139.39c-.131.4-.146.43-.234.476-.177.091-.388-.03-.388-.222 0-.023.019-.106.042-.184l.112-.387a3.32 3.32 0 0 1 .1-.303.551.551 0 0 1 .1-.13c.068-.067.087-.079.34-.204.146-.073.32-.162.387-.198.149-.082.232-.103.34-.086A.416.416 0 0 1 3 1.616c.004.057-.016.22-.085.712-.083.583-.09.64-.076.668a2.1 2.1 0 0 0 .23.209c.225.186.275.235.324.321.066.116.07.137.114.748.023.312.04.595.038.629a.297.297 0 0 1-.286.277.44.44 0 0 1-.087-.001zm-1.597-.065a.357.357 0 0 1-.199-.16.208.208 0 0 1-.021-.108c0-.063.016-.106.286-.786.157-.395.29-.734.296-.752.006-.018.014-.033.017-.033.004 0 .119.093.256.206.192.16.249.212.245.226-.003.01-.115.3-.25.643-.242.616-.246.625-.296.677a.307.307 0 0 1-.24.096.487.487 0 0 1-.094-.009ZM3.65 2.766a2.545 2.545 0 0 1-.314-.211l-.275-.204a5.47 5.47 0 0 1 .089-.607c.005 0 .152.11.328.244l.372.283c.078.06.108.09.13.134a.255.255 0 0 1-.115.341.306.306 0 0 1-.215.02zM2.234.612c.007-.205.193-.413.38-.46a.683.683 0 0 1 .25.003c.18.048.326.203.364.385a.507.507 0 0 1-.615.592c-.256-.098-.389-.3-.379-.52Z"/></svg>
